build/img/food.svg

<svg width="40" height="40" viewBox="0 0 40 40" fill="none" xmlns="http://www.w3.org/2000/svg">
<path d="M37.7428 25.8505H2.25722C0.997375 25.8505 0 26.8635 0 28.0285V29.8014C0 30.9664 0.997375 31.9288 2.25722 31.9288H2.78215V32.4354C2.78215 35.2213 5.14436 37.45 7.979 37.45H32.021C34.9081 37.45 37.2178 35.1706 37.2178 32.4354V31.9288H37.7428C38.9501 31.9288 40 30.9664 40 29.7508V27.9779C40 26.8635 39.0026 25.8505 37.7428 25.8505ZM35.6955 32.4354C35.6955 34.3602 34.0682 35.9304 32.0735 35.9304H7.92651C5.93176 35.9304 4.30446 34.3602 4.30446 32.4354V31.9288H35.6955V32.4354ZM38.4252 29.7508C38.4252 30.1053 38.1102 30.4092 37.7428 30.4092H2.25722C1.88976 30.4092 1.5748 30.1053 1.5748 29.7508V27.9779C1.5748 27.674 1.88976 27.3701 2.25722 27.3701H37.7953C38.1627 27.3701 38.4777 27.674 38.4777 28.0285V29.7508H38.4252Z" fill="#81B3D2"/>
<path d="M8.50395 21.7473L11.3386 23.7735L14.2257 21.7473L17.1129 23.7735L20 21.7473L22.8347 23.7735L25.7218 21.7473L28.6089 23.7735L31.4961 21.7473L34.3832 23.7735L37.6903 21.3928L36.7979 20.1771L34.3832 21.8486L31.4961 19.8225L28.6089 21.8486L25.7218 19.8225L22.8347 21.8486L20 19.8225L17.1129 21.8486L14.2257 19.8225L11.3386 21.8486L8.50395 19.8225L5.61682 21.8486L3.20212 20.1771L2.25723 21.3928L5.61682 23.7735L8.50395 21.7473Z" fill="#81B3D2"/>
<path d="M37.2179 18.3032C37.2179 17.9993 37.2704 16.9862 37.2179 16.7836C36.8504 8.88169 29.2913 2.55005 20 2.55005C10.7087 2.55005 3.09712 8.88169 2.72967 16.7836C2.72967 16.9862 2.72967 17.9993 2.72967 18.3032H37.2179ZM20 4.06964C28.399 4.06964 35.3281 9.74279 35.6431 16.7836H4.30447C4.67193 9.74279 11.6011 4.06964 20 4.06964Z" fill="#81B3D2"/>
<path d="M20 11.1611C20.5798 11.1611 21.0499 10.7076 21.0499 10.1481C21.0499 9.58857 20.5798 9.13501 20 9.13501C19.4202 9.13501 18.9501 9.58857 18.9501 10.1481C18.9501 10.7076 19.4202 11.1611 20 11.1611Z" fill="#81B3D2"/>
<path d="M15.8005 8.67871C16.3803 8.67871 16.8504 8.22515 16.8504 7.66565C16.8504 7.10615 16.3803 6.65259 15.8005 6.65259C15.2207 6.65259 14.7506 7.10615 14.7506 7.66565C14.7506 8.22515 15.2207 8.67871 15.8005 8.67871Z" fill="#81B3D2"/>
<path d="M24.1995 8.67871C24.7793 8.67871 25.2493 8.22515 25.2493 7.66565C25.2493 7.10615 24.7793 6.65259 24.1995 6.65259C23.6196 6.65259 23.1496 7.10615 23.1496 7.66565C23.1496 8.22515 23.6196 8.67871 24.1995 8.67871Z" fill="#81B3D2"/>
</svg>

<svg width="40" height="40" fill="none" xmlns="http://www.w3.org/2000/svg"><path d="M37.743 25.85H2.257C.997 25.85 0 26.864 0 28.029v1.773c0 1.165.997 2.128 2.257 2.128h.525v.506c0 2.786 2.362 5.015 5.197 5.015h24.042c2.887 0 5.197-2.28 5.197-5.015v-.506h.525c1.207 0 2.257-.963 2.257-2.178v-1.773c0-1.115-.997-2.128-2.257-2.128Zm-2.047 6.585c0 1.925-1.628 3.495-3.622 3.495H7.927c-1.995 0-3.623-1.57-3.623-3.495v-.506h31.392v.506Zm2.73-2.684c0 .354-.316.658-.683.658H2.257c-.367 0-.682-.304-.682-.658v-1.773c0-.304.315-.608.682-.608h35.538c.368 0 .683.304.683.659v1.722h-.053ZM8.504 21.747l2.835 2.026 2.887-2.026 2.887 2.026L20 21.747l2.835 2.026 2.887-2.026 2.887 2.026 2.887-2.026 2.887 2.026 3.307-2.38-.892-1.216-2.415 1.672-2.887-2.026-2.887 2.026-2.887-2.026-2.887 2.026L20 19.823l-2.887 2.026-2.887-2.026-2.887 2.026-2.835-2.026-2.887 2.026-2.415-1.672-.945 1.216 3.36 2.38 2.887-2.026ZM37.218 18.303c0-.304.052-1.317 0-1.52C36.85 8.883 29.29 2.55 20 2.55S3.097 8.882 2.73 16.784v1.52h34.488ZM20 4.07c8.399 0 15.328 5.673 15.643 12.714H4.304C4.672 9.743 11.601 4.07 20 4.07Z" fill="#81B3D2"/><path d="M20 11.161c.58 0 1.05-.453 1.05-1.013 0-.56-.47-1.013-1.05-1.013-.58 0-1.05.454-1.05 1.013 0 .56.47 1.013 1.05 1.013ZM15.8 8.679c.58 0 1.05-.454 1.05-1.013 0-.56-.47-1.013-1.05-1.013-.58 0-1.05.453-1.05 1.013 0 .56.47 1.013 1.05 1.013ZM24.2 8.679c.58 0 1.05-.454 1.05-1.013 0-.56-.47-1.013-1.05-1.013-.58 0-1.05.453-1.05 1.013 0 .56.47 1.013 1.05 1.013Z" fill="#81B3D2"/></svg>
